public/navbar/logo-mobile.svg

<svg width="26" height="25" viewBox="0 0 26 25" fill="none" xmlns="http://www.w3.org/2000/svg">
<path d="M25.028 7.89807C24.2671 7.07405 23.3527 6.65773 22.2858 6.64909C21.2198 6.64182 20.2813 7.00679 19.4729 7.74626C18.7193 8.43529 18.3242 9.24612 18.2845 10.1806C18.2694 10.5219 18.2941 10.8396 18.3566 11.1332C18.4567 11.6014 18.1822 12.0672 17.7168 12.1872L17.6528 12.2036C17.055 12.3581 16.4859 11.8713 16.5494 11.2596L17.0559 6.38366C17.1271 5.31831 17.1157 4.48384 17.0225 3.88253C16.9285 3.28168 16.7869 2.77263 16.5955 2.35631C16.1283 1.34004 15.3852 0.641924 14.3704 0.26605C13.3532 -0.110733 12.3795 -0.0870988 11.4501 0.335589C10.4275 0.801 9.74697 1.53775 9.40899 2.54493C9.07239 3.55165 9.1313 4.55247 9.58803 5.54647C10.0137 6.47229 10.6663 7.09723 11.5469 7.42357C11.8689 7.5431 12.1795 7.61855 12.4795 7.64945C12.9577 7.69945 13.3181 8.10305 13.2893 8.58073L13.2852 8.64618C13.2482 9.25976 12.607 9.6479 12.042 9.39884L7.53871 7.41266C6.5426 7.01588 5.74151 6.76908 5.13818 6.67091C4.53485 6.57455 4.0046 6.55092 3.54742 6.60364C2.43165 6.73181 1.5351 7.21904 0.861896 8.06396C0.187318 8.91115 -0.0912824 9.84016 0.0260952 10.8501C0.154891 11.9618 0.648607 12.8335 1.50679 13.4644C2.36497 14.0939 3.33961 14.3479 4.43072 14.2225C5.44738 14.1057 6.24573 13.6812 6.82988 12.9485C7.04363 12.6808 7.2117 12.4099 7.3341 12.1354C7.52958 11.6982 8.02695 11.4818 8.47454 11.6568L8.53619 11.6809C9.11121 11.9059 9.28431 12.6326 8.87143 13.0899L5.58166 16.7382C4.89475 17.5581 4.41108 18.2403 4.13111 18.7811C3.85251 19.322 3.66617 19.817 3.57528 20.2656C3.35286 21.3609 3.54148 22.3604 4.1407 23.2585C4.74129 24.1584 5.54284 24.7088 6.54443 24.9101C7.64696 25.1315 8.63211 24.9338 9.50079 24.3165C10.3677 23.6989 10.9116 22.8549 11.1285 21.7836C11.3309 20.7855 11.1719 19.8983 10.6522 19.1193C10.4626 18.8343 10.2553 18.5916 10.031 18.3907C9.67343 18.0708 9.62045 17.5331 9.926 17.1636L9.96802 17.1127C10.3603 16.6382 11.1085 16.6991 11.4181 17.2308L13.8881 21.4718C14.4594 22.3754 14.9618 23.0439 15.392 23.4757C15.8232 23.9066 16.2384 24.2356 16.6394 24.4606C17.6177 25.0097 18.6311 25.1396 19.6743 24.8501C20.7197 24.5602 21.4939 23.9716 21.9958 23.0857C22.548 22.1108 22.6635 21.1168 22.342 20.1042C22.0195 19.0929 21.381 18.3176 20.4242 17.7808C19.5327 17.2808 18.6357 17.1567 17.7305 17.4081C17.3993 17.4994 17.1034 17.6208 16.8421 17.7708C16.4256 18.0103 15.8958 17.8944 15.6369 17.4908L15.6012 17.4354C15.2687 16.9172 15.5583 16.2282 16.1621 16.0991L20.9787 15.0719C22.0186 14.8102 22.8129 14.5415 23.3587 14.2679C23.9035 13.993 24.3465 13.7021 24.6854 13.3921C25.5126 12.6358 25.9496 11.7173 25.9958 10.6401C26.0414 9.56109 25.7181 8.64663 25.0266 7.89807H25.028Z" fill="black"/>
</svg>

<svg width="26" height="25" fill="none" xmlns="http://www.w3.org/2000/svg"><path d="M25.028 7.898c-.76-.824-1.675-1.24-2.742-1.249-1.066-.007-2.005.358-2.813 1.097-.754.69-1.149 1.5-1.188 2.435-.016.34.01.659.072.952a.888.888 0 0 1-.64 1.054l-.064.017a.884.884 0 0 1-1.104-.944l.507-4.876c.071-1.066.06-1.9-.034-2.501-.093-.601-.235-1.11-.426-1.527-.468-1.016-1.21-1.714-2.226-2.09-1.017-.377-1.99-.353-2.92.07C10.428.8 9.747 1.538 9.41 2.545c-.337 1.007-.278 2.007.179 3.001.426.926 1.078 1.551 1.959 1.878.322.12.633.195.932.225a.89.89 0 0 1 .81.932l-.004.065a.886.886 0 0 1-1.243.753L7.539 7.413c-.996-.397-1.797-.644-2.4-.742-.604-.096-1.134-.12-1.592-.067-1.115.128-2.012.615-2.685 1.46-.675.847-.953 1.776-.836 2.786.129 1.112.623 1.984 1.48 2.614.859.63 1.834.884 2.925.758 1.016-.116 1.815-.54 2.399-1.274.214-.267.382-.538.504-.813a.894.894 0 0 1 1.14-.478l.062.024a.88.88 0 0 1 .335 1.409l-3.29 3.648c-.686.82-1.17 1.502-1.45 2.043-.278.541-.465 1.036-.556 1.485-.222 1.095-.034 2.094.566 2.993.6.9 1.402 1.45 2.403 1.651 1.103.221 2.088.024 2.957-.593.867-.618 1.41-1.462 1.628-2.533.202-.998.043-1.886-.477-2.665a3.785 3.785 0 0 0-.621-.728.885.885 0 0 1-.105-1.227l.042-.051a.888.888 0 0 1 1.45.118l2.47 4.24c.571.904 1.074 1.573 1.504 2.005.431.43.846.76 1.247.985.979.549 1.992.679 3.035.39 1.046-.29 1.82-.88 2.322-1.765.552-.975.668-1.97.346-2.982-.322-1.011-.961-1.786-1.918-2.323-.891-.5-1.788-.624-2.694-.373a3.811 3.811 0 0 0-.888.363.895.895 0 0 1-1.205-.28l-.036-.056a.88.88 0 0 1 .561-1.336l4.817-1.027c1.04-.262 1.834-.53 2.38-.804.544-.275.987-.566 1.326-.876.828-.756 1.265-1.675 1.31-2.752.046-1.079-.277-1.993-.968-2.742h.001Z" fill="#000"/></svg>
